public/assets/img/casestudies/wellmee/Background1.svg

<svg fill="none" height="1183" viewBox="0 0 1440 1183" width="1440" xmlns="http://www.w3.org/2000/svg" xmlns:xlink="http://www.w3.org/1999/xlink"><linearGradient id="a"><stop offset="0" stop-color="#ffa552"/><stop offset=".13111" stop-color="#ffd47a"/><stop offset=".294222" stop-color="#d3cf50"/><stop offset=".689753" stop-color="#8ce58a"/><stop offset="1" stop-color="#45de8c"/></linearGradient><linearGradient id="b" gradientUnits="userSpaceOnUse" x1="2401.87" x2="-233.76" xlink:href="#a" y1="-157.037" y2="-157.037"/><linearGradient id="c" gradientUnits="userSpaceOnUse" x1="3094.78" x2="-627.485" xlink:href="#a" y1="-155.201" y2="-155.2"/><clipPath id="d"><path d="m0 0h1440v1183h-1440z"/></clipPath><g clip-path="url(#d)"><path d="m1072.26 611.517c23.57 51.73.88 113.355-53.09 131.229-116.874 38.708-240.468 54.472-363.942 46.047-157.799-10.767-310.43-60.701-444.104-145.29-133.6728-84.589-244.1753-201.168-321.523-339.203-60.531-108.025-99.264-226.5264-114.39-348.7864-6.979-56.4086 38.969-103.3176 95.801-104.1766 56.8332-.859 102.8774 44.743 111.534 100.9196 13.56264 88.0134 42.7998 173.1714 86.5968 251.3324 60.6242 108.19 147.2352 199.563 252.0062 265.863 104.772 66.3 224.402 105.438 348.083 113.877 89.308 6.093 178.696-3.958 263.95-29.388 54.507-16.258 115.488 5.816 139.078 57.576z" fill="url(#b)"/><path d="m1072.26 611.517c23.57 51.73.88 113.355-53.09 131.229-116.874 38.708-240.468 54.472-363.942 46.047-157.799-10.767-310.43-60.701-444.104-145.29-133.6728-84.589-244.1753-201.168-321.523-339.203-60.531-108.025-99.264-226.5264-114.39-348.7864-6.979-56.4086 38.969-103.3176 95.801-104.1766 56.8332-.859 102.8774 44.743 111.534 100.9196 13.56264 88.0134 42.7998 173.1714 86.5968 251.3324 60.6242 108.19 147.2352 199.563 252.0062 265.863 104.772 66.3 224.402 105.438 348.083 113.877 89.308 6.093 178.696-3.958 263.95-29.388 54.507-16.258 115.488 5.816 139.078 57.576z" fill="#29d2c1"/><path d="m1951.99-46.4896c58.65 5.4729 102.19 57.5702 92.08 115.6014-28.27 162.4052-86.23 318.5382-171.27 460.4622-103.35 172.481-244.08 319.584-411.81 430.477-167.74 110.889-358.21 182.749-557.387 210.289-163.895 22.65-330.254 14.82-490.757-22.78-57.352-13.43-88.232-73.9-70.294-130.01 17.937-56.102 77.903-86.516 135.449-73.94 129.919 28.391 264.11 33.71 396.393 15.424 167.576-23.165 327.836-83.623 468.956-176.922 141.12-93.3 259.52-217.064 346.47-362.18 68.64-114.55 116.31-240.102 141.08-370.7595 10.97-57.87367 62.44-101.135 121.09-95.6621z" fill="url(#c)"/><path d="m1951.99-46.4896c58.65 5.4729 102.19 57.5702 92.08 115.6014-28.27 162.4052-86.23 318.5382-171.27 460.4622-103.35 172.481-244.08 319.584-411.81 430.477-167.74 110.889-358.21 182.749-557.387 210.289-163.895 22.65-330.254 14.82-490.757-22.78-57.352-13.43-88.232-73.9-70.294-130.01 17.937-56.102 77.903-86.516 135.449-73.94 129.919 28.391 264.11 33.71 396.393 15.424 167.576-23.165 327.836-83.623 468.956-176.922 141.12-93.3 259.52-217.064 346.47-362.18 68.64-114.55 116.31-240.102 141.08-370.7595 10.97-57.87367 62.44-101.135 121.09-95.6621z" fill="#29d2c1"/></g></svg>

<svg width="1440" height="1183" viewBox="0 0 1440 1183" fill="none" xmlns="http://www.w3.org/2000/svg">
<g clip-path="url(#clip0_4106_16851)">
<path d="M1072.26 611.517C1095.83 663.247 1073.14 724.872 1019.17 742.746C902.296 781.454 778.702 797.218 655.228 788.793C497.429 778.026 344.798 728.092 211.124 643.503C77.4512 558.914 -33.0513 442.335 -110.399 304.3C-170.93 196.275 -209.663 77.7736 -224.789 -44.4864C-231.768 -100.895 -185.82 -147.804 -128.988 -148.663C-72.1548 -149.522 -26.1106 -103.92 -17.454 -47.7434C-3.89136 40.27 25.3458 125.428 69.1428 203.589C129.767 311.779 216.378 403.152 321.149 469.452C425.921 535.752 545.551 574.89 669.232 583.329C758.54 589.422 847.928 579.371 933.182 553.941C987.689 537.683 1048.67 559.757 1072.26 611.517Z" fill="url(#paint0_linear_4106_16851)"/>
<path d="M1072.26 611.517C1095.83 663.247 1073.14 724.872 1019.17 742.746C902.296 781.454 778.702 797.218 655.228 788.793C497.429 778.026 344.798 728.092 211.124 643.503C77.4512 558.914 -33.0513 442.335 -110.399 304.3C-170.93 196.275 -209.663 77.7736 -224.789 -44.4864C-231.768 -100.895 -185.82 -147.804 -128.988 -148.663C-72.1548 -149.522 -26.1106 -103.92 -17.454 -47.7434C-3.89136 40.27 25.3458 125.428 69.1428 203.589C129.767 311.779 216.378 403.152 321.149 469.452C425.921 535.752 545.551 574.89 669.232 583.329C758.54 589.422 847.928 579.371 933.182 553.941C987.689 537.683 1048.67 559.757 1072.26 611.517Z" fill="#29D2C1"/>
<path d="M1951.99 -46.4896C2010.64 -41.0167 2054.18 11.0806 2044.07 69.1118C2015.8 231.517 1957.84 387.65 1872.8 529.574C1769.45 702.055 1628.72 849.158 1460.99 960.051C1293.25 1070.94 1102.78 1142.8 903.603 1170.34C739.708 1192.99 573.349 1185.16 412.846 1147.56C355.494 1134.13 324.614 1073.66 342.552 1017.55C360.489 961.448 420.455 931.034 478.001 943.61C607.92 972.001 742.111 977.32 874.394 959.034C1041.97 935.869 1202.23 875.411 1343.35 782.112C1484.47 688.812 1602.87 565.048 1689.82 419.932C1758.46 305.382 1806.13 179.83 1830.9 49.1725C1841.87 -8.70117 1893.34 -51.9625 1951.99 -46.4896Z" fill="url(#paint1_linear_4106_16851)"/>
<path d="M1951.99 -46.4896C2010.64 -41.0167 2054.18 11.0806 2044.07 69.1118C2015.8 231.517 1957.84 387.65 1872.8 529.574C1769.45 702.055 1628.72 849.158 1460.99 960.051C1293.25 1070.94 1102.78 1142.8 903.603 1170.34C739.708 1192.99 573.349 1185.16 412.846 1147.56C355.494 1134.13 324.614 1073.66 342.552 1017.55C360.489 961.448 420.455 931.034 478.001 943.61C607.92 972.001 742.111 977.32 874.394 959.034C1041.97 935.869 1202.23 875.411 1343.35 782.112C1484.47 688.812 1602.87 565.048 1689.82 419.932C1758.46 305.382 1806.13 179.83 1830.9 49.1725C1841.87 -8.70117 1893.34 -51.9625 1951.99 -46.4896Z" fill="#29D2C1"/>
</g>
<defs>
<linearGradient id="paint0_linear_4106_16851" x1="2401.87" y1="-157.037" x2="-233.76" y2="-157.037" gradientUnits="userSpaceOnUse">
<stop stop-color="#FFA552"/>
<stop offset="0.13111" stop-color="#FFD47A"/>
<stop offset="0.294222" stop-color="#D3CF50"/>
<stop offset="0.689753" stop-color="#8CE58A"/>
<stop offset="1" stop-color="#45DE8C"/>
</linearGradient>
<linearGradient id="paint1_linear_4106_16851" x1="3094.78" y1="-155.201" x2="-627.485" y2="-155.2" gradientUnits="userSpaceOnUse">
<stop stop-color="#FFA552"/>
<stop offset="0.13111" stop-color="#FFD47A"/>
<stop offset="0.294222" stop-color="#D3CF50"/>
<stop offset="0.689753" stop-color="#8CE58A"/>
<stop offset="1" stop-color="#45DE8C"/>
</linearGradient>
<clipPath id="clip0_4106_16851">
<rect width="1440" height="1183" fill="white"/>
</clipPath>
</defs>
</svg>
